Newaita/actions/32/dialog-ok-apply.svg

<svg height="32" viewBox="0 0 32 32" width="32" xmlns="http://www.w3.org/2000/svg"><path d="m26.652344 4.359375c-.253906-.007813-.496094.125-.621094.347656l-10.96875 19.230469-9.78125-9.785156c-.269531-.265625-.703125-.265625-.96875 0l-.992188.992187c-.269531.269531-.269531.703125 0 .972657l11.742188 11.742187c.316406.316406.855469.246094 1.078125-.148437l12.320313-21.582032c.1875-.324218.078124-.734375-.242188-.925781l-1.238281-.746094c-.101563-.058593-.210938-.089843-.328125-.097656zm0 0" fill="#424242"/></svg>

<svg xmlns="http://www.w3.org/2000/svg" xmlns:xlink="http://www.w3.org/1999/xlink" width="32px" height="32px" viewBox="0 0 32 32" version="1.1">
<g id="surface1">
     <defs>
  <style id="current-color-scheme" type="text/css">
   .ColorScheme-Text { color:#424242; } .ColorScheme-Highlight { color:#eeeeee; }
  </style>
 </defs>
<path style="fill:currentColor" class="ColorScheme-Text" d="M 26.652344 4.359375 C 26.398438 4.351562 26.15625 4.484375 26.03125 4.707031 L 15.0625 23.9375 L 5.28125 14.152344 C 5.011719 13.886719 4.578125 13.886719 4.3125 14.152344 L 3.320312 15.144531 C 3.050781 15.414062 3.050781 15.847656 3.320312 16.117188 L 15.0625 27.859375 C 15.378906 28.175781 15.917969 28.105469 16.140625 27.710938 L 28.460938 6.128906 C 28.648438 5.804688 28.539062 5.394531 28.21875 5.203125 L 26.980469 4.457031 C 26.878906 4.398438 26.769531 4.367188 26.652344 4.359375 Z M 26.652344 4.359375 "/>
</g>
</svg>
